Apricity Icons/16/panel/dropboxstatus-logo.svg

<svg xmlns="http://www.w3.org/2000/svg" width="16" height="16" version="1.1">
 <defs>
  <style id="current-color-scheme" type="text/css">
   .ColorScheme-Text { color:#dfdfdf; } .ColorScheme-Highlight { color:#4285f4; }
  </style>
 </defs>
 <path style="fill:currentColor" class="ColorScheme-Text" d="M 4.4472656 1 L 4.4492188 1.0039062 L 0.0078125 3.5078125 L 4 5.9863281 L 0 9.0039062 L 4.4492188 11.5 L 8 9.0097656 L 4 6 L 8 3.5078125 L 12 6.0136719 L 8 9.0097656 L 11.550781 11.5 L 16 8.9902344 L 12 5.9960938 L 15.990234 3.5058594 L 11.550781 1 L 8 3.4921875 L 4.4472656 1 z M 8 10.009766 L 4.4492188 12.501953 L 3.5605469 12.003906 L 3.5605469 12.375 L 8 15 L 12.439453 12.375 L 12.439453 12 L 11.550781 12.501953 L 8 10.009766 z"/>
</svg>

<svg xmlns="http://www.w3.org/2000/svg" width="16" height="16"><defs><style id="current-color-scheme" type="text/css"></style></defs><path d="M4.447 1l.002.004L.008 3.508 4 5.986 0 9.004 4.45 11.5 8 9.01 4 6l4-2.492 4 2.506L8 9.01l3.55 2.49L16 8.99l-4-2.994 3.99-2.49L11.55 1 8 3.492 4.447 1zM8 10.01l-3.55 2.492-.89-.498v.371L8 15l4.44-2.625V12l-.89.502L8 10.01z" fill="currentColor" color="#dfdfdf"/></svg>
